X:1
T:94
L:1/8
Q:1/4=100
M:4/4
K:Bb
V:1 treble nm="Piano" snm="Pno."
V:1
 D (F2 E) D^C/D/ B,2 | z E GF ED/E/ =C2 | z D cB A3 G | FB F>D C4 | E G2 B AG/A/ F2 | %5
 z B dc B3 A/G/ | F^F G2 CD/E/ =F2- | F/G,/A,/B,/ CD B,4 |] %8

